X: 1802
T:Martin Wynne's (#4,Maybe)
N:IrTrad, 6/99, Rick Gagne<Morse.Gagne@CONNRIVER.NET>
N:Rick sez,'There's another D reel which I think of as
N:"Martin Wynne's", though I can't remember where I
N:learned it, or where I got that name.'
M:4/4
L:1/8
R:Reel
K:D
D2FD A,DFD | E2GE B,EGE | Ddcd BAFD | E2EF EDB,C, | D2FD A,DFD |
E2GE B,EGE | Ddcd BAFD |1 EDC,E D2A,B, ||2 EDC,E DEFA :||
B2BA B2Bc | d2cd BAF^G | A2cA EAcA | ABce aecA | B2BA B2Bc |
d2cd BAFE | DEFA dfec |1 dBAF EFGA ||2 dBAF EGFE :||
